X:1
T:Rex Regum, CMD
T:Rex Regum, CMD
T:John Stainer (1840-1901)
T:Public Domain Courtesy of the Cyber Hymnal™
C:John Stainer (1840-1901)
Z:Public Domain
Z:Courtesy of the Cyber Hymnal™
%%score ( 1 2 ) ( 3 4 )
L:1/8
Q:1/4=113
M:4/4
K:D
V:1 treble 
V:2 treble 
V:3 bass 
V:4 bass 
V:1
 [DF]2 | [CE]3 D D2 [DE]2 | [DF]3 [EG] [FA]2 [FA]2 | [Bd]3 [Bd] [Ac]2 [GB]2 | [FA]6 [FA]2 | %5
 [FA]3 [^E^G] F2 [FA]2 | [Ac]3 [^GB] [FA]2 [Ac]2 | [Ae]2 [Ad]2 [AB]2 [^Gc]2 | A6 [CE]2 | %9
 [CE]3 [DF] [CG]2 [CE]2 | [DA]2 [DF]2 D2 [FA]2 | [DG]2 [A,F]2 [B,E]2 [=CD]2 | [B,B]6 [DB]2 | %13
 [Fc]3 [Fc] [Ff]2 [Fc]2 | [Fd]2 [Fd]2 [Ac]2 [GB]2 | [FA]2 [DF]2 [CE]3 D | D6 |] %17
V:2
 x2 | x3 D D2 x2 | x8 | x8 | x8 | x4 F2 x2 | x8 | x8 | A6 x2 | x8 | x4 D2 x2 | x8 | x8 | x8 | x8 | %15
 x7 D | D6 |] %17
V:3
 [D,A,]2 | [D,G,]3 [D,F,] [D,F,]2 [D,G,]2 | [D,A,]3 [D,A,] [D,D]2 D2 | [G,D]3 [G,D] [G,D]2 [B,D]2 | %4
 D6 [D,A,]2 | [C,C]3 [C,B,] [F,A,]2 [F,C]2 | [^E,C]3 [E,C] [F,C]2 [F,A,]2 | %7
 [E,C]2 [F,D]2 [D,F]2 (ED) | [A,C]6 A,2 | [G,A,]3 [F,A,] [E,A,]2 [G,A,]2 | %10
 [F,A,]2 [F,A,]2 [F,A,]2 [=CD]2 | [B,D]2 [A,=C]2 [G,B,]2 [F,A,]2 | G,6 [G,B,]2 | %13
 [F,^A,]3 [F,A,] [F,A,]2 [F,A,]2 | B,2 [B,D]2 [G,D]2 [G,D]2 | [A,D]2 A,2 [A,,A,]2 [A,,G,]2 | %16
 [D,F,]6 |] %17
V:4
 x2 | x8 | x6 D2 | x8 | D6 x2 | x8 | x8 | x6 E,2 | x6 A,2 | x8 | x8 | x8 | G,6 x2 | x8 | B,2 x6 | %15
 x2 A,2 x4 | x6 |] %17

